!!!!SEGMENT: pl-cz--iii-594b--002_rzepko-adolf--missa-gloria.krn
!!!cenid: 18xx:1135
!!!COM: Rzepko, Adolf
!!!COM-rismID: pe30020315
!!!CDT: 1825-1892
!!!CNT: Polish
!!!OPR: Missa
!!!OTL: Gloria
!!!OMV: 002
!!!PDT: 1873
!!!AGN: Sacred; Mass
!!!SMS-siglum: PL-CZ
!!!SMS-shelfmark: III-594b
!!!SMS-shelfwork: 001-002 M
!!!SMS-variant:
!!!SMS-altvar:
!!!NIFC-rismSourceID: 300001137
!!!NIFC-islandoraID:
!!!URL-pdf-islandora:
!!!URL-scan:
!!!ONB-nifc: UWAGA: części Mszy: Kyrie, Gloria, Credo, Sanctus, Benedictus, Agnus Dei. Uwaga: msza w źródle druga w kolejności, od skanu nr 0023, RISM ID 300001137.
!!!OMD: Allegretto
!!!AIN: 1 clars 1 flt 1 organ 1 soprn 2 tromp 3 violn
!!!key: C
**kern	**fba	**dynam	**kern	**dynam	**kern	**dynam	**kern	**dynam	**kern	**text	**dynam	**kern	**dynam	**kern	**dynam	**kern	**dynam	**kern	**dynam
*part9	*part9	*part9	*part8	*part8	*part7	*part7	*part6	*part6	*part5	*part5	*part5	*part4	*part4	*part3	*part3	*part2	*part2	*part1	*part1
*staff9	*staff9	*	*staff8	*	*staff7	*	*staff6	*	*staff5	*staff5	*	*staff4	*	*staff3	*	*staff2	*	*staff1	*
*I"Organo	*	*	*I"Violino in F obligato	*	*I"Violino 2do	*	*I"Violino 1mo	*	*I"Sopran	*	*	*I"Clarino in C IIdo	*	*I"Clarino in C: 1mo	*	*I"Clarinetto in C	*	*I"Flauto	*
*I'org	*	*	*I'vl obl	*	*I'vl 2	*	*I'vl 1	*	*I'S	*	*	*I'clno 2	*	*I'clno 1	*	*I'cl	*	*I'fl	*
*Iorgan	*	*	*Ivioln	*	*Ivioln	*	*Ivioln	*	*Isoprn	*	*	*Itromp	*	*Itromp	*	*Iclars	*	*Iflt	*
*ICklav	*	*	*ICstr	*	*ICstr	*	*ICstr	*	*ICvox	*	*	*ICbras	*	*ICbras	*	*ICww	*	*ICww	*
*clefF4	*	*	*clefG2	*	*clefG2	*	*clefG2	*	*clefC1	*	*	*clefG2	*	*clefG2	*	*clefG2	*	*clefG2	*
*	*	*	*ITrd4c7	*	*	*	*	*	*	*	*	*	*	*	*	*	*	*	*
*k[]	*	*	*k[]	*	*k[]	*	*k[]	*	*k[]	*	*	*k[]	*	*k[]	*	*k[]	*	*k[]	*
*C:	*	*	*C:	*	*C:	*	*C:	*	*C:	*	*	*C:	*	*C:	*	*C:	*	*C:	*
*M4/4	*	*	*M4/4	*	*M4/4	*	*M4/4	*	*M4/4	*	*	*M4/4	*	*M4/4	*	*M4/4	*	*M4/4	*
*met(c)	*	*	*met(c)	*	*met(c)	*	*met(c)	*	*met(c)	*	*	*met(c)	*	*met(c)	*	*met(c)	*	*met(c)	*
*all\right	*	*	*all\right	*	*all\right	*	*all\right	*	*all\right	*	*	*all\right	*	*all\right	*	*all\right	*	*all\right	*
=1	=1	=1	=1	=1	=1	=1	=1	=1	=1	=1	=1	=1	=1	=1	=1	=1	=1	=1	=1
!	!	!	!	!	!	!	!	!	!LO:TX:a:t=1	!	!	!	!	!	!	!	!	!	!
!LO:TX:a:i:t=uniso&colon;	!	!LO:DY:b:rj	!LO:TX:a:i:t=Allegretto	!LO:DY:b:rj	!LO:TX:a:i:t=Allegretto	!LO:DY:b:rj	!LO:TX:a:i:t=Allegretto	!LO:DY:b:rj	!LO:TX:a:t=allegreto	!	!	!	!LO:DY:b:rj	!LO:TX:a:i:t=Allegretto	!LO:DY:b:rj	!LO:TX:a:i:t=Allegretto	!	!LO:TX:a:t=Allegr-	!LO:DY:b:rj
4.C/	.	f	(4.c/	f	(4.cc\	f	(4.ccc\	f	1r	.	.	4.c/	f	4.cc/	f	(4.cc\	.	(4.ccc\	f
8C/	.	.	16B/LL	.	16b\LL	.	16bb\LL	.	.	.	.	8c/	.	8cc/	.	16b\LL	.	16bb\LL	.
.	.	.	16c/JJ)	.	16cc\JJ)	.	16ccc\JJ)	.	.	.	.	.	.	.	.	16cc\JJ)	.	16ccc\JJ)	.
4.G\	.	.	(4.g\	.	(4.g/	.	(4.gg\	.	.	.	.	4.G/	.	4.g/	.	(4.g/	.	(4.gg\	.
8G\	.	.	16f#X\LL	.	16f#X/LL	.	16ff#X\LL	.	.	.	.	8G/	.	8g/	.	16f#X/LL	.	16ff#X\LL	.
.	.	.	16g\JJ)	.	16g/JJ)	.	16gg\JJ)	.	.	.	.	.	.	.	.	16g/JJ)	.	16gg\JJ)	.
!	!	!	!LO:LB:g=original	!	!	!	!	!	!	!	!	!	!	!	!	!	!	!	!
=2	=2	=2	=2	=2	=2	=2	=2	=2	=2	=2	=2	=2	=2	=2	=2	=2	=2	=2	=2
4E\	.	.	(8e\L	.	(8e/L	.	(8ee\L	.	2r	.	.	8G/	.	8e/	.	(8e/L	.	(8ee\L	.
.	.	.	16d#X\L	.	16c#X/L	.	16dd#X\L	.	.	.	.	8r	.	8r	.	16d#X/L	.	16dd#X\L	.
.	.	.	16e\JJ)	.	16e/JJ)	.	16ee\JJ)	.	.	.	.	.	.	.	.	16e/JJ)	.	16ee\JJ)	.
4G\	.	.	(8g\L	.	(8g/L	.	(8gg\L	.	.	.	.	8G/	.	8g/	.	(8g/L	.	(8gg\L	.
.	.	.	16f#X\L	.	16f#X/L	.	16ff#X\L	.	.	.	.	8r	.	8r	.	16f#X/L	.	16ff#X\L	.
.	.	.	16g\JJ)	.	16g/JJ)	.	16gg\JJ)	.	.	.	.	.	.	.	.	16g/JJ)	.	16gg\JJ)	.
4C\	.	.	4c/	.	4cn/	.	4cc\	.	4r	.	.	4c/	.	4c/	.	4c/	.	4cc\	.
8C\L	5 3	.	8.G/L 8.g	.	8.e/L 8.cc	.	8.ee\L 8.ccc	.	8.cc\	Glo-	.	8.c/L	.	8.e/L	.	8.gg\L	.	8.ccc\L	.
8E\J	.	.	.	.	.	.	.	.	.	.	.	.	.	.	.	.	.	.	.
.	.	.	16G/Jk 16g	.	16e/Jk 16cc	.	16ee\Jk 16ccc	.	16cc\	-ri-	.	16c/Jk	.	16e/Jk	.	16gg\Jk	.	16ccc\Jk	.
!	!	!	!	!	!	!	!	!	!	!	!	!	!	!	!	!	!	!LO:LB:g=original	!
=3	=3	=3	=3	=3	=3	=3	=3	=3	=3	=3	=3	=3	=3	=3	=3	=3	=3	=3	=3
4G\	5 3	.	4G/ 4g	.	4d/ 4b	.	4dd\ 4bb	.	4b\	-a	.	4G/	.	4g/	.	4gg\	.	4bb\	.
8C\L	5_ 3_	.	8.G/L 8.g	.	8.e/L 8.cc	.	8.ee\L 8.ccc	.	8.cc\	in	.	8.c/L	.	8.e/L	.	8.gg\L	.	8.ccc\L	.
8E\J	x x	.	.	.	.	.	.	.	.	.	.	.	.	.	.	.	.	.	.
.	.	.	16G/Jk 16g	.	16e/Jk 16cc	.	16ee\Jk 16ccc	.	16cc\	ex-	.	16c/Jk	.	16e/Jk	.	16gg\Jk	.	16ccc\Jk	.
4G\	5 3	.	4G/ 4g	.	4d/ 4b	.	4dd\ 4bb	.	4b\	-cel-	.	4G/	.	4g/	.	4gg\	.	4bb\	.
!	!	!	!	!	!LO:LB:g=original	!	!	!	!	!	!	!	!	!	!	!	!	!	!
=-	=-	=-	=-	=-	=-	=-	=-	=-	=-	=-	=-	=-	=-	=-	=-	=-	=-	=-	=-
8C\L	5_ 3_	.	8.G/L 8.g	.	8.e/L 8.cc	.	8.ee\L 8.ccc	.	4cc\	-sis	.	8.G/L	.	8.e/L	.	8.gg\L	.	8.ccc\L	.
8E\J	x x	.	.	.	.	.	.	.	.	.	.	.	.	.	.	.	.	.	.
.	.	.	16G/Jk 16g	.	16e/Jk 16cc	.	16ee\Jk 16ccc	.	.	.	.	16G/Jk	.	16e/Jk	.	16gg\Jk	.	16ccc\Jk	.
!	!	!	!	!	!	!	!LO:LB:g=original	!	!	!	!	!	!	!	!	!	!	!	!
=4	=4	=4	=4	=4	=4	=4	=4	=4	=4	=4	=4	=4	=4	=4	=4	=4	=4	=4	=4
*^	*	*	*	*	*	*	*	*	*	*	*	*	*	*	*	*	*	*	*
4G\	4ryy	5 3	.	4G/ 4g	.	4d/ 4b	.	4dd\ 4bb	.	4b\	De-	.	4G/	.	4g/	.	4gg\	.	4bb\	.
4G\	4GG\	8	.	8.G/L 8.g	.	8.G/L 8.g	.	8.gg\L	.	4g\	-o	.	8.G/L	.	8.g/L	.	8.g/L	.	8.gg\L	.
.	.	.	.	16G/Jk 16g	.	16G/Jk 16g	.	16gg\Jk	.	.	.	.	16G/Jk	.	16g/Jk	.	16g/Jk	.	16gg\Jk	.
4G\	4GG\	8	.	4G/ 4g	.	4G/ 4g	.	4gg\	.	2r	.	.	4G/	.	4g/	.	4g/	.	4gg\	.
4r	4ryy	.	.	4r	.	4r	.	4r	.	.	.	.	4r	.	4r	.	4r	.	4r	.
*v	*v	*	*	*	*	*	*	*	*	*	*	*	*	*	*	*	*	*	*	*
!	!	!	!	!	!	!	!	!	!	!	!	!	!	!	!	!LO:LB:g=original	!	!	!
=5	=5	=5	=5	=5	=5	=5	=5	=5	=5	=5	=5	=5	=5	=5	=5	=5	=5	=5	=5
!LO:TX:a:i:t=uniso&colon;	!	!	!	!	!	!	!	!	!LO:TX:a:t=1	!	!	!LO:TX:a:t=2	!	!LO:TX:a:t=2	!	!	!	!	!
4.D\	.	.	(4.d/	.	(4.dd\	.	(4.ddd\	.	1r	.	.	0r	.	0r	.	(4.dd\	.	(4.ddd\	.
8D\	.	.	16c#X/LL	.	16cc#X\LL	.	16ccc#X\LL	.	.	.	.	.	.	.	.	16cc#X\LL	.	16ccc#X\LL	.
.	.	.	16d/JJ)	.	16dd\JJ)	.	16ddd\JJ)	.	.	.	.	.	.	.	.	16dd\JJ)	.	16ddd\JJ)	.
4.A\	.	.	(4.A/	.	(4.a/	.	(4.aa\	.	.	.	.	.	.	.	.	(4.a/	.	(4.aa\	.
8A\	.	.	16G#X/LL	.	16g#X/LL	.	16gg#X\LL	.	.	.	.	.	.	.	.	16g#X/LL	.	16gg#X\LL	.
.	.	.	16A/JJ)	.	16a/JJ)	.	16aa\JJ)	.	.	.	.	.	.	.	.	16a/JJ)	.	16aa\JJ)	.
=6	=6	=6	=6	=6	=6	=6	=6	=6	=6	=6	=6	=6	=6	=6	=6	=6	=6	=6	=6
4F\	.	.	(8F/L	.	8f/L	.	(8ff\L	.	2r	.	.	.	.	.	.	(8f/L	.	(8ff\L	.
.	.	.	16E/L	.	16e/L	.	16ee\L	.	.	.	.	.	.	.	.	16e/L	.	16ee\L	.
.	.	.	16F/JJ)	.	16f/JJ	.	16ff\JJ)	.	.	.	.	.	.	.	.	16f/JJ)	.	16ff\JJ)	.
4A\	.	.	(8A/L	.	8a/L	.	(8aa\L	.	.	.	.	.	.	.	.	(8a/L	.	(8aa\L	.
.	.	.	16G#X/L	.	16g#X/L	.	16gg#X\L	.	.	.	.	.	.	.	.	16g#X/L	.	16gg#X\L	.
.	.	.	16A/JJ)	.	16a/JJ	.	16aa\JJ)	.	.	.	.	.	.	.	.	16a/JJ)	.	16aa\JJ)	.
4D\	.	.	4D/	.	4d/	.	4dd\	.	4r	.	.	.	.	.	.	4d/	.	4dd\	.
8D\L	5_ 3_	.	8.d\L 8.a	.	8.f/L 8.dd	.	8.ff\L 8.ddd	.	8.ff\	et	.	.	.	.	.	8.aa\L	.	8.fff\L	.
8F\J	x x	.	.	.	.	.	.	.	.	.	.	.	.	.	.	.	.	.	.
.	.	.	16d\Jk 16a	.	16f/Jk 16dd	.	16ff\Jk 16ddd	.	16ff\	in	.	.	.	.	.	16gg\Jk	.	16fff\Jk	.
=7	=7	=7	=7	=7	=7	=7	=7	=7	=7	=7	=7	=7	=7	=7	=7	=7	=7	=7	=7
*^	*	*	*	*	*	*	*	*	*	*	*	*	*	*	*	*	*	*	*
4G\	4ryy	6_ 4_	.	4G/ 4g	.	4e/ 4cc	.	4gg\ 4eee	.	4ee\	ter-	.	4G/	.	4g/	.	4gg\	.	4eee\	.
!LO:LB:g=original	!	!	!	!	!	!	!	!	!	!	!	!	!	!	!	!	!	!	!	!
=-	=-	=-	=-	=-	=-	=-	=-	=-	=-	=-	=-	=-	=-	=-	=-	=-	=-	=-	=-	=-
4G\	4GG\	x x	.	8.G/L 8.g	.	8.e/L 8.cc	.	8.ee\L 8.ccc	.	8.cc\	-ra	.	8.G/L	.	8.g/L	.	8.gg\L	.	8.ccc\L	.
.	.	.	.	16G/Jk 16g	.	16e/Jk 16cc	.	16ee\Jk 16ccc	.	16cc\	pax	.	16G/Jk	.	16g/Jk	.	16gg\Jk	.	16ccc\Jk	.
4G\	4GG\	7	.	4d\ 4b	.	4f/ 4dd	.	4ff\ 4ddd	.	4dd\	ho-	.	4G/	.	4g/	.	4gg\	.	4ddd\	.
4G\	4GG\	7	.	8.G/L 8.f	.	8.d/L 8.b	.	8.dd\L 8.bb	.	8.b\	-mi-	.	8.G/L	.	8.g/L	.	8.ff\L	.	8.bb\L	.
.	.	.	.	16G/Jk 16f	.	16d/Jk 16b	.	16dd\Jk 16bb	.	16b\	-ni-	.	16G/Jk	.	16g/Jk	.	16gg\Jk	.	16bb\Jk	.
*v	*v	*	*	*	*	*	*	*	*	*	*	*	*	*	*	*	*	*	*	*
=8	=8	=8	=8	=8	=8	=8	=8	=8	=8	=8	=8	=8	=8	=8	=8	=8	=8	=8	=8
4C/	5 3	.	4c/ 4g	.	4e/ 4cc	.	4ee\ 4ccc	.	4cc\	-bus.	.	4c/	.	4e/	.	4ee\	.	4ccc\	.
4C/	8	.	8.C/L 8.c	.	8.c/L	.	8.cc\L	.	4r	.	.	8.c/L	.	8.e/L	.	8.cc\L	.	4r	.
.	.	.	16C/Jk 16c	.	16c/Jk	.	16cc\Jk	.	.	.	.	16c/Jk	.	16e/Jk	.	16cc\Jk	.	.	.
4C/	8	.	4c/	.	4c/	.	4cc\	.	4r	.	.	4c/	.	4e/	.	4cc\	.	2r	.
!	!	!	!	!	!	!	!	!	!LO:TX:a:i:t=Solo	!	!	!	!	!	!	!	!	!	!
4r	.	.	4r	.	4r	.	8r	.	4g\	lau-	.	4r	.	4r	.	4r	.	.	.
!	!	!	!	!	!	!	!LO:TX:a:i:t=Solo	!	!	!	!	!	!	!	!	!	!	!	!
.	.	.	.	.	.	.	8gg\	.	.	.	.	.	.	.	.	.	.	.	.
=9	=9	=9	=9	=9	=9	=9	=9	=9	=9	=9	=9	=9	=9	=9	=9	=9	=9	=9	=9
!LO:TX:a:i:t=Tasto Solo	!	!LO:DY:b	!	!LO:DY:b	!	!LO:DY:b	!	!	!	!	!	!	!LO:DY:b:rj	!	!LO:DY:b:rj	!LO:TX:a:t=2	!	!LO:TX:a:i:t=Solo	!
2C/	.	p	8r	p	8r	p	4.gg\	.	4.g\	-da-	.	2c/	p	2e/	p	0r	.	2r	.
*	*	*	*tremolo	*	*tremolo	*	*	*	*	*	*	*	*	*	*	*	*	*	*
.	.	.	8c/L	.	8G/ 8eL	.	.	.	.	.	.	.	.	.	.	.	.	.	.
.	.	.	8c/	.	8G/ 8e	.	.	.	.	.	.	.	.	.	.	.	.	.	.
.	.	.	8c/J	.	8G/ 8eJ	.	8ccc\	.	8cc\	-mus	.	.	.	.	.	.	.	.	.
2GG/	.	.	8r	.	8r	.	4bb\	.	4b\	te	.	2G/	.	2g/	.	.	.	4r	.
.	.	.	8B/ 8dL	.	8G/ 8fL	.	.	.	.	.	.	.	.	.	.	.	.	.	.
.	.	.	8B/ 8d	.	8G/ 8f	.	8.gg\L	.	8.g\	be-	.	.	.	.	.	.	.	8.gg\L	.
.	.	.	8B/ 8dJ	.	8G/ 8fJ	.	.	.	.	.	.	.	.	.	.	.	.	.	.
.	.	.	.	.	.	.	16gg\Jk	.	16g\	-ne-	.	.	.	.	.	.	.	16gg\Jk	.
!	!	!	!	!	!	!	!	!	!LO:LB:g=original	!	!	!	!	!	!	!	!	!	!
=10	=10	=10	=10	=10	=10	=10	=10	=10	=10	=10	=10	=10	=10	=10	=10	=10	=10	=10	=10
*	*	*	*rep	*	*rep	*	*	*	*	*	*	*rep	*	*rep	*	*	*	*	*
2C/	.	.	8r	.	8r	.	4.gg\	.	4g\	-di-	.	2c/	.	2e/	.	.	.	4.gg\	.
.	.	.	8c/L	.	8G/ 8eL	.	.	.	.	.	.	.	.	.	.	.	.	.	.
.	.	.	8c/	.	8G/ 8e	.	.	.	8g\	-ci-	.	.	.	.	.	.	.	.	.
.	.	.	8c/J	.	8G/ 8eJ	.	8ee\	.	8ee\	-mus	.	.	.	.	.	.	.	8eee\	.
2GG/	.	.	8r	.	8r	.	4dd\	.	4dd\	te	.	2G/	.	2g/	.	.	.	4ddd\	.
.	.	.	8B/ 8dL	.	8G/ 8fL	.	.	.	.	.	.	.	.	.	.	.	.	.	.
.	.	.	8B/ 8d	.	8G/ 8f	.	8.gg\L	.	8g\	a-	.	.	.	.	.	.	.	8gg\L	.
.	.	.	8B/ 8dJ	.	8G/ 8fJ	.	.	.	8g\	-do-	.	.	.	.	.	.	.	8gg\J	.
.	.	.	.	.	.	.	16gg\Jk	.	.	.	.	.	.	.	.	.	.	.	.
*	*	*	*Xrep	*	*Xrep	*	*	*	*	*	*	*Xrep	*	*Xrep	*	*	*	*	*
*	*	*	*Xtremolo	*	*Xtremolo	*	*	*	*	*	*	*	*	*	*	*	*	*	*
!	!	!	!LO:LB:g=original	!	!	!	!	!	!	!	!	!	!	!	!	!	!	!	!
=11	=11	=11	=11	=11	=11	=11	=11	=11	=11	=11	=11	=11	=11	=11	=11	=11	=11	=11	=11
*	*	*	*	*	*	*	*tremolo	*	*	*	*	*	*	*	*	*2\right	*	*	*
!	!	!	!	!LO:DY:b:rj	!	!LO:DY:b:rj	!LO:TX:t=||||	!	!	!	!LO:DY:a:rj	!	!LO:DY:b:rj	!	!LO:DY:b:rj	!	!LO:DY:b:rj	!	!
2C/	5 3	.	2G/ 2g	ff	2e/ 2cc	ff	16eee\LL	.	4ee\	-ra-	f	2c/	f	2e/	f	2ccc\	f	4.eee\	.
.	.	.	.	.	.	.	16eee\	.	.	.	.	.	.	.	.	.	.	.	.
.	.	.	.	.	.	.	16eee\	.	.	.	.	.	.	.	.	.	.	.	.
.	.	.	.	.	.	.	16eee\JJ	.	.	.	.	.	.	.	.	.	.	.	.
*	*	*	*	*	*	*	*Xtremolo	*	*	*	*	*	*	*	*	*	*	*	*
.	.	.	.	.	.	.	16eee\LL	.	8ee\	-mus	.	.	.	.	.	.	.	.	.
.	.	.	.	.	.	.	16eee\	.	.	.	.	.	.	.	.	.	.	.	.
.	.	.	.	.	.	.	16fff\	.	(16ff\LL	glo-	.	.	.	.	.	.	.	16fff\LL	.
.	.	.	.	.	.	.	16eee\JJ	.	16ee\JJ)	.	.	.	.	.	.	.	.	16eee\JJ	.
*	*	*	*	*	*	*	*tremolo	*	*	*	*	*	*	*	*	*	*	*	*
!	!	!	!	!	!	!	!LO:TX:t=||||	!	!	!	!	!	!	!	!	!	!	!	!
2GG/	.	.	2B/ 2d	.	2d/ 2b	.	16ddd\LL	.	4dd\	-ri-	.	2G/	.	2g/	.	2gg\	.	4.ddd\	.
.	.	.	.	.	.	.	16ddd\	.	.	.	.	.	.	.	.	.	.	.	.
.	.	.	.	.	.	.	16ddd\	.	.	.	.	.	.	.	.	.	.	.	.
.	.	.	.	.	.	.	16ddd\JJ	.	.	.	.	.	.	.	.	.	.	.	.
*	*	*	*	*	*	*	*Xtremolo	*	*	*	*	*	*	*	*	*	*	*	*
!	!	!	!	!	!	!	!LO:LB:g=original	!	!	!	!	!	!	!	!	!	!	!	!
=-	=-	=-	=-	=-	=-	=-	=-	=-	=-	=-	=-	=-	=-	=-	=-	=-	=-	=-	=-
!	!	!	!	!	!	!	!LO:N:vis=8	!	!	!	!	!	!	!	!	!	!	!	!
.	.	.	.	.	.	.	16ddd\LL	.	(8dd\L	-fi-	.	.	.	.	.	.	.	.	.
!	!	!	!	!	!	!	!LO:N:vis=8	!	!	!	!	!	!	!	!	!	!	!	!
.	.	.	.	.	.	.	16ddd\	.	.	.	.	.	.	.	.	.	.	.	.
!	!	!	!	!	!	!	!LO:N:vis=8	!	!	!	!	!	!	!	!	!	!	!	!
.	.	.	.	.	.	.	16eee\	.	16ee\L	.	.	.	.	.	.	.	.	16eee\LL	.
!	!	!	!	!	!	!	!LO:N:vis=8	!	!	!	!	!	!	!	!	!	!	!	!
.	.	.	.	.	.	.	16ddd\JJ	.	16dd\JJ)	.	.	.	.	.	.	.	.	16ddd\JJ	.
!	!	!	!	!	!	!	!	!	!	!	!	!LO:LB:g=original	!	!	!	!	!	!	!
=12	=12	=12	=12	=12	=12	=12	=12	=12	=12	=12	=12	=12	=12	=12	=12	=12	=12	=12	=12
*	*	*	*	*	*	*	*tremolo	*	*	*	*	*	*	*	*	*	*	*	*
2AA/	.	.	2c/	.	2e/ 2a	.	16ccc\LL	.	4cc\	-ca-	.	2e/	.	2e/	.	2aa\	.	4.ccc\	.
.	.	.	.	.	.	.	16ccc\	.	.	.	.	.	.	.	.	.	.	.	.
.	.	.	.	.	.	.	16ccc\	.	.	.	.	.	.	.	.	.	.	.	.
.	.	.	.	.	.	.	16ccc\JJ	.	.	.	.	.	.	.	.	.	.	.	.
*	*	*	*	*	*	*	*Xtremolo	*	*	*	*	*	*	*	*	*	*	*	*
.	.	.	.	.	.	.	16ccc\LL	.	(8cc\L	-mus	.	.	.	.	.	.	.	.	.
.	.	.	.	.	.	.	16ccc\	.	.	.	.	.	.	.	.	.	.	.	.
.	.	.	.	.	.	.	16ddd\	.	16dd\L	.	.	.	.	.	.	.	.	16ddd\LL	.
.	.	.	.	.	.	.	16ccc\JJ	.	16cc\JJ)	.	.	.	.	.	.	.	.	16ccc\JJ	.
*2\right	*	*	*	*	*	*	*tremolo	*	*	*	*	*	*	*	*	*	*	*	*
!	!	!	!	!	!	!	!LO:TX:t=||||	!	!	!	!	!	!	!	!	!	!	!	!
2E\	#3	.	2B/ 2e	.	2g#X/	.	16bb\LL	.	4b\	te	.	2e/	.	2e/	.	2ee\	.	4.bb\	.
.	.	.	.	.	.	.	16bb\	.	.	.	.	.	.	.	.	.	.	.	.
.	.	.	.	.	.	.	16bb\	.	.	.	.	.	.	.	.	.	.	.	.
.	.	.	.	.	.	.	16bb\JJ	.	.	.	.	.	.	.	.	.	.	.	.
*	*	*	*	*	*	*	*Xtremolo	*	*	*	*	*	*	*	*	*	*	*	*
.	.	.	.	.	.	.	16bb\LL	.	8r	.	.	.	.	.	.	.	.	.	.
.	.	.	.	.	.	.	16bb\	.	.	.	.	.	.	.	.	.	.	.	.
.	.	.	.	.	.	.	16ccc\	.	8b\	glo-	.	.	.	.	.	.	.	16ccc\LL	.
.	.	.	.	.	.	.	16bb\JJ	.	.	.	.	.	.	.	.	.	.	16bb\JJ	.
!	!	!	!	!	!LO:LB:g=original	!	!	!	!	!	!	!	!	!	!	!	!	!LO:LB:g=original	!
=13	=13	=13	=13	=13	=13	=13	=13	=13	=13	=13	=13	=13	=13	=13	=13	=13	=13	=13	=13
*	*	*	*	*	*	*	*tremolo	*	*	*	*	*	*	*	*	*	*	*	*
!	!	!	!	!	!	!	!LO:TX:t=||||	!	!	!	!	!	!	!	!	!	!	!	!
4F\	.	.	4c/	.	4f/ 4a	.	16cc\ 16aaLL	.	4a\	-ri-	.	4c/	.	4c/	.	4ff\	.	4aa\	.
.	.	.	.	.	.	.	16cc\ 16aa	.	.	.	.	.	.	.	.	.	.	.	.
.	.	.	.	.	.	.	16cc\ 16aa	.	.	.	.	.	.	.	.	.	.	.	.
.	.	.	.	.	.	.	16cc\ 16aaJJ	.	.	.	.	.	.	.	.	.	.	.	.
4D\	6 3	.	4G/ 4f	.	4d/ 4b	.	16dd\ 16bbLL	.	4b\	-fi-	.	4G/	.	4g/	.	4dd\	.	4bb\	.
.	.	.	.	.	.	.	16dd\ 16bb	.	.	.	.	.	.	.	.	.	.	.	.
.	.	.	.	.	.	.	16dd\ 16bb	.	.	.	.	.	.	.	.	.	.	.	.
.	.	.	.	.	.	.	16dd\ 16bbJJ	.	.	.	.	.	.	.	.	.	.	.	.
4E\	6 3	.	4c/	.	4g/ 4cc	.	16ee\ 16cccLL	.	4cc\	-ca-	.	4c/	.	4g/	.	4gg\	.	4ccc\	.
.	.	.	.	.	.	.	16ee\ 16ccc	.	.	.	.	.	.	.	.	.	.	.	.
.	.	.	.	.	.	.	16ee\ 16ccc	.	.	.	.	.	.	.	.	.	.	.	.
.	.	.	.	.	.	.	16ee\ 16cccJJ	.	.	.	.	.	.	.	.	.	.	.	.
4F#X\	6 5	.	4d\ 4a	.	4d/ 4cc	.	16dd\ 16dddLL	.	4dd\	-mus	.	4c/	.	4c/	.	4aa\	.	4ddd\	.
.	.	.	.	.	.	.	16dd\ 16ddd	.	.	.	.	.	.	.	.	.	.	.	.
.	.	.	.	.	.	.	16dd\ 16ddd	.	.	.	.	.	.	.	.	.	.	.	.
.	.	.	.	.	.	.	16dd\ 16dddJJ	.	.	.	.	.	.	.	.	.	.	.	.
*	*	*	*	*	*	*	*Xtremolo	*	*	*	*	*	*	*	*	*	*	*	*
!	!	!	!	!	!	!	!	!	!	!	!	!	!	!LO:LB:g=original	!	!	!	!	!
=14	=14	=14	=14	=14	=14	=14	=14	=14	=14	=14	=14	=14	=14	=14	=14	=14	=14	=14	=14
4G\	3	.	4B/ 4g	.	4d/ 4b	.	4dd\ 4gg	.	(4b\	te	.	4G/	.	4g/	.	4gg\	.	4bb\	.
4GG/	8	.	4G/ 4g	.	4G/ 4g	.	4gg\	.	4g\)	.	.	4G/	.	4g/	.	4g/	.	4gg\	.
2r	.	.	2r	.	2r	.	2r	.	2r	.	.	2r	.	2r	.	2r	.	2r	.
=15	=15	=15	=15	=15	=15	=15	=15	=15	=15	=15	=15	=15	=15	=15	=15	=15	=15	=15	=15
!LO:TX:a:t=2	!	!	!LO:TX:a:i:t=Solo	!	!LO:TX:a:i:t=Solo	!LO:DY:b:rj	!	!	!LO:TX:a:t=2	!	!	!LO:TX:a:t=2	!	!LO:TX:a:t=2	!	!	!	!LO:TX:a:t=2	!
0r	.	.	4.d/	.	4.dd\	f	4.ff\	.	0r	.	.	0r	.	0r	.	4.f/	.	0r	.
.	.	.	8c/	.	8cc\	.	8ee\	.	.	.	.	.	.	.	.	8e/	.	.	.
.	.	.	4G/	.	4g/	.	4dd\	.	.	.	.	.	.	.	.	4d/	.	.	.
.	.	.	4r	.	4r	.	4r	.	.	.	.	.	.	.	.	4r	.	.	.
=16	=16	=16	=16	=16	=16	=16	=16	=16	=16	=16	=16	=16	=16	=16	=16	=16	=16	=16	=16
.	.	.	4.c/	.	4.cc\	.	4.ee\	.	.	.	.	.	.	.	.	4.e/	.	.	.
.	.	.	8G/	.	8g/	.	8dd\	.	.	.	.	.	.	.	.	8d/	.	.	.
.	.	.	4E/	.	4e/	.	4cc\	.	.	.	.	.	.	.	.	4c/	.	.	.
.	.	.	4r	.	4r	.	4r	.	.	.	.	.	.	.	.	4r	.	.	.
=17	=17	=17	=17	=17	=17	=17	=17	=17	=17	=17	=17	=17	=17	=17	=17	=17	=17	=17	=17
*^	*	*	*	*	*	*	*	*	*	*	*	*	*	*	*	*	*	*	*
!	!	!	!	!	!LO:DY:b:rj	!	!	!	!LO:DY:b:rj	!	!	!	!	!	!	!	!	!LO:DY:b:rj	!	!LO:DY:b:rj
4F\	4ryy	6 3	.	4A/ 4f	f	4d/ 4a	.	4f/ 4a	ff	(4a\	lau-	.	2r	.	2r	.	4ff\	f	4aa\	f
4D\	4ryy	3	.	4A/ 4d	.	4f/ 4dd	.	4a\ 4ff	.	4ff\)	.	.	.	.	.	.	4ff\	.	4fff\	.
4G\	4GG\	6 4	.	4c/ 4e	.	4g/	.	4cc\ 4ee	.	4ee\	-da-	.	4G/	.	4g/	.	4ee\	.	4eee\	.
4G\	4GG\	7	.	4B/ 4d	.	4G/ 4g	.	4d/ 4dd	.	4dd\	-mus	.	4G/	.	4g/	.	4dd\	.	4ddd\	.
*v	*v	*	*	*	*	*	*	*	*	*	*	*	*	*	*	*	*	*	*	*
=18	=18	=18	=18	=18	=18	=18	=18	=18	=18	=18	=18	=18	=18	=18	=18	=18	=18	=18	=18
!LO:TX:a:i:t=uniso&colon;	!	!	!	!	!	!	!LO:TX:t=P:problem=mixed beam	!	!	!	!	!	!	!	!	!	!	!	!
8C\L	3	.	8c/L 8e	.	8G/L 8g	.	8e/L 8cc	.	4cc\	te	.	8c/L	.	8cc\L	.	8cc/L	.	8ccc\L	.
8G\	.	.	8G/	.	8g/J	.	8ggT\	.	.	.	.	8G/	.	8g\	.	8g/	.	8ggT\	.
8c\	.	.	8c/	.	8cc/L	.	8ccc\	.	4r	.	.	8c/	.	8cc\	.	8cc/	.	8ccc\	.
8G\J	.	.	8G/J	.	8g/J	.	8gg\J	.	.	.	.	8G/J	.	8g\J	.	8g/J	.	8gg\J	.
8E\L	.	.	8E/L	.	8e/L	.	8ee\L	.	2r	.	.	8e/L	.	8e\L	.	8e/L	.	8ee\L	.
8G\	.	.	8G/	.	8g/	.	8gg\	.	.	.	.	8g/	.	8g\	.	8g/	.	8gg\	.
8E\	.	.	8E/	.	8e/	.	8ee\	.	.	.	.	8e/	.	8e\	.	8e/	.	8ee\	.
8C\J	.	.	8C/J	.	8c/J	.	8cc\J	.	.	.	.	8c/J	.	8c\J	.	8c/J	.	8cc\J	.
!	!	!	!	!	!	!	!	!	!	!	!	!	!	!	!	!LO:LB:g=original	!	!	!
=19	=19	=19	=19	=19	=19	=19	=19	=19	=19	=19	=19	=19	=19	=19	=19	=19	=19	=19	=19
!LO:TX:a:i:t=tasto solo	!	!	!	!	!	!	!LO:TX:a:t=Solo	!LO:DY:b:rj	!LO:TX:a:t=2	!	!	!LO:TX:a:t=3	!	!LO:TX:a:t=3	!	!LO:TX:a:i:t=Solo	!	!LO:TX:a:t=2	!
2.E\	.	.	4.B/	.	4.d/	.	4.dd\	f	0r	.	.	0r	.	0r	.	4.b\	.	0r	.
.	.	.	8A/	.	8c/	.	8cc\	.	.	.	.	.	.	.	.	8a/	.	.	.
.	.	.	4G#X/	.	4B/	.	4b\	.	.	.	.	.	.	.	.	4g#X/	.	.	.
4r	.	.	4r	.	4r	.	4r	.	.	.	.	.	.	.	.	4r	.	.	.
=20	=20	=20	=20	=20	=20	=20	=20	=20	=20	=20	=20	=20	=20	=20	=20	=20	=20	=20	=20
2E\	.	.	4.A/	.	4.c/	.	4.cc\	.	.	.	.	.	.	.	.	4.a/	.	.	.
.	.	.	8G#X/	.	8B/	.	8b\	.	.	.	.	.	.	.	.	8g#X/	.	.	.
4E\	.	.	4FnX/	.	4A/	.	4a\	.	.	.	.	.	.	.	.	4f/	.	.	.
4r	.	.	4r	.	4r	.	4r	.	.	.	.	.	.	.	.	4r	.	.	.
!	!	!	!	!	!	!	!LO:LB:g=original	!	!	!	!	!	!	!	!	!	!	!	!
=21	=21	=21	=21	=21	=21	=21	=21	=21	=21	=21	=21	=21	=21	=21	=21	=21	=21	=21	=21
!	!	!	!	!	!	!	!	!LO:DY:b	!	!	!	!	!	!	!	!	!LO:DY:b:rj	!	!LO:DY:b
4D\	6_ 3_	.	4f/	.	4d/ 4b	.	4dd\ 4bb	ff	4b\	a-	.	1r	.	1r	.	4ff\	f	4bb\	f
4D\	.	.	4f\	.	4d/ 4b	.	4dd\ 4bb	.	4b\	-do-	.	.	.	.	.	4ff\	.	4bb\	.
4E-X\	6 4 #2	.	4c\ 4f#X	.	4cc/	.	4ee-X\ 4ccc	.	4cc\	-ra-	.	.	.	.	.	4ff#X\	.	4ccc\	.
4E-\	.	.	4c/	.	4f#X/ 4a	.	4cc\ 4aa	.	4a\	-mus	.	.	.	.	.	4ff#\	.	4aa\	.
!	!	!	!	!	!	!	!	!	!LO:LB:g=original	!	!	!	!	!	!	!	!	!	!
=22	=22	=22	=22	=22	=22	=22	=22	=22	=22	=22	=22	=22	=22	=22	=22	=22	=22	=22	=22
!	!	!	!	!	!	!	!	!	!	!	!	!	!LO:DY:b:rj	!	!LO:DY:b:rj	!	!	!	!
4E\	#3	.	8g#X\L	.	8e/L 8b	.	8b\L 8gg	.	4g#X\	te	.	8e/	f	8e/	f	8ee\L	.	8gg#X\L	.
.	.	.	16e\L	.	16e/L	.	16ee\L 16eee	.	.	.	.	16e/LL	.	16ee\LL	.	16ee\L	.	16eee\L	.
.	.	.	16e\JJ	.	16e/JJ	.	16ee\JJ 16eee	.	.	.	.	16e/JJ	.	16ee\JJ	.	16ee\JJ	.	16eee\JJ	.
4E\	8	.	8e\L	.	8e/L	.	8ee\L 8eee	.	4r	.	.	8e/L	.	8ee\L	.	8ee\L	.	8eee\L	.
.	.	.	8e\J	.	8e/J	.	8ee\J 8eee	.	.	.	.	8e/J	.	8ee\J	.	8ee\J	.	8eee\J	.
*	*	*	*2\right	*	*	*	*2\right	*	*	*	*	*	*	*2\right	*	*	*	*2\right	*
*	*	*	*tremolo	*	*tremolo	*	*tremolo	*	*	*	*	*tremolo	*	*tremolo	*	*tremolo	*	*tremolo	*
4E\	.	.	8e\L	.	8e/L	.	16eee\LL	.	2r	.	.	8e/L	.	8ee\L	.	8ee\L	.	8eee\L	.
.	.	.	.	.	.	.	16eee\	.	.	.	.	.	.	.	.	.	.	.	.
.	.	.	8e\	.	8e/	.	16eee\	.	.	.	.	8e/	.	8ee\	.	8ee\	.	8eee\	.
.	.	.	.	.	.	.	16eee\	.	.	.	.	.	.	.	.	.	.	.	.
4E\	.	.	8e\	.	8e/	.	16eee\	.	.	.	.	8e/	.	8ee\	.	8ee\	.	8eee\	.
.	.	.	.	.	.	.	16eee\	.	.	.	.	.	.	.	.	.	.	.	.
.	.	.	8e\J	.	8e/J	.	16eee\	.	.	.	.	8e/J	.	8ee\J	.	8ee\J	.	8eee\J	.
.	.	.	.	.	.	.	16eee\JJ	.	.	.	.	.	.	.	.	.	.	.	.
*	*	*	*Xtremolo	*	*Xtremolo	*	*Xtremolo	*	*	*	*	*Xtremolo	*	*Xtremolo	*	*Xtremolo	*	*Xtremolo	*
!LO:LB:g=original	!	!	!LO:LB:g=original	!	!	!	!	!	!	!	!	!	!	!	!	!	!	!	!
=:|!23	=23	=23	=:|!23	=23	=:|!23	=23	=:|!23	=23	=23	=23	=23	=:|!23	=23	=:|!23	=23	=:|!23	=23	=:|!23	=23
!LO:TX:t=P:problem=wszystkie partie instrumentalne zapisane jako repetycja	!	!	!	!	!	!	!	!	!	!	!	!	!	!	!	!	!	!	!
!LO:TXX:a:i:t=uniso&colon;	!	!LO:DY:b:rj	!LO:TX:t=P:problem=wszystkie partie instrumentalne zapisane jako repetycja	!LO:DY:b:rj	!LO:TX:t=P:problem=wszystkie partie instrumentalne zapisane jako repetycja	!LO:DY:b:rj	!LO:TX:t=P:problem=wszystkie partie instrumentalne zapisane jako repetycja	!	!	!	!LO:DY:a:rj	!LO:TX:t=P:problem=wszystkie partie instrumentalne zapisane jako repetycja	!LO:DY:b:rj	!LO:TX:t=P:problem=wszystkie partie instrumentalne zapisane jako repetycja	!LO:DY:b:rj	!LO:TX:t=P:problem=wszystkie partie instrumentalne zapisane jako repetycja	!	!LO:TX:t=P:problem=wszystkie partie instrumentalne zapisane jako repetycja	!LO:DY:b:rj
4.C/yy	.	fy	(4.c/yy	fy	(4.cc\yy	fy	(4.ccc\yy	.	4.cc\	Quo-	f	4.c/yy	fy	4.cc/yy	fy	(4.cc\yy	.	(4.ccc\yy	fy
8C/yy	.	.	16B/LLyy	.	16b\LLyy	.	16bb\LLyy	.	8cc\	-ni-	.	8c/yy	.	8cc/yy	.	16b\LLyy	.	16bb\LLyy	.
.	.	.	16c/JJ)yy	.	16cc\JJ)yy	.	16ccc\JJ)yy	.	.	.	.	.	.	.	.	16cc\JJ)yy	.	16ccc\JJ)yy	.
4.G\yy	.	.	(4.g\yy	.	(4.g/yy	.	(4.gg\yy	.	4.g\	-am	.	4.G/yy	.	4.g/yy	.	(4.g/yy	.	(4.gg\yy	.
8G\yy	.	.	16f#X\LLyy	.	16f#X/LLyy	.	16ff#X\LLyy	.	8g\	tu	.	8G/yy	.	8g/yy	.	16f#X/LLyy	.	16ff#X\LLyy	.
.	.	.	16g\JJ)yy	.	16g/JJ)yy	.	16gg\JJ)yy	.	.	.	.	.	.	.	.	16g/JJ)yy	.	16gg\JJ)yy	.
=24	=24	=24	=24	=24	=24	=24	=24	=24	=24	=24	=24	=24	=24	=24	=24	=24	=24	=24	=24
4E\yy	.	.	(8e\Lyy	.	(8e/Lyy	.	(8ee\Lyy	.	(4e/	so-	.	8G/yy	.	8e/yy	.	(8e/Lyy	.	(8ee\Lyy	.
.	.	.	16d#X\Lyy	.	16c#X/Lyy	.	16dd#X\Lyy	.	.	.	.	8ryy	.	8ryy	.	16d#X/Lyy	.	16dd#X\Lyy	.
.	.	.	16e\JJ)yy	.	16e/JJ)yy	.	16ee\JJ)yy	.	.	.	.	.	.	.	.	16e/JJ)yy	.	16ee\JJ)yy	.
4G\yy	.	.	(8g\Lyy	.	(8g/Lyy	.	(8gg\Lyy	.	4g/)	.	.	8G/yy	.	8g/yy	.	(8g/Lyy	.	(8gg\Lyy	.
.	.	.	16f#X\Lyy	.	16f#X/Lyy	.	16ff#X\Lyy	.	.	.	.	8ryy	.	8ryy	.	16f#X/Lyy	.	16ff#X\Lyy	.
.	.	.	16g\JJ)yy	.	16g/JJ)yy	.	16gg\JJ)yy	.	.	.	.	.	.	.	.	16g/JJ)yy	.	16gg\JJ)yy	.
4C\yy	.	.	4c/yy	.	4cn/yy	.	4cc\yy	.	4cc\	-lus	.	4c/yy	.	4c/yy	.	4c/yy	.	4cc\yy	.
8C\Lyy	5 3	.	8.G/L 8.gyy	.	8.e/L 8.ccyy	.	8.ee\L 8.cccyy	.	4cc\	tu	.	8.c/Lyy	.	8.e/Lyy	.	8.gg\Lyy	.	8.ccc\Lyy	.
8E\Jyy	.	.	.	.	.	.	.	.	.	.	.	.	.	.	.	.	.	.	.
.	.	.	16G/Jk 16gyy	.	16e/Jk 16ccyy	.	16ee\Jk 16cccyy	.	.	.	.	16c/Jkyy	.	16e/Jkyy	.	16gg\Jkyy	.	16ccc\Jkyy	.
=25	=25	=25	=25	=25	=25	=25	=25	=25	=25	=25	=25	=25	=25	=25	=25	=25	=25	=25	=25
4G\yy	5 3	.	4G/yy 4gyy	.	4d/yy 4byy	.	4dd\yy 4bbyy	.	(4b\	so-	.	4G/yy	.	4g/yy	.	4gg\yy	.	4bb\yy	.
8C\Lyy	5_ 3_	.	8.G/Lyy 8.gyy	.	8.e/Lyy 8.ccyy	.	8.ee\Lyy 8.cccyy	.	4cc\)	.	.	8.c/Lyy	.	8.e/Lyy	.	8.gg\Lyy	.	8.ccc\Lyy	.
8E\Jyy	x x	.	.	.	.	.	.	.	.	.	.	.	.	.	.	.	.	.	.
.	.	.	16G/Jkyy 16gyy	.	16e/Jkyy 16ccyy	.	16ee\Jkyy 16cccyy	.	.	.	.	16c/Jkyy	.	16e/Jkyy	.	16gg\Jkyy	.	16ccc\Jkyy	.
4G\yy	5 3	.	4G/yy 4gyy	.	4d/yy 4byy	.	4dd\yy 4bbyy	.	(4b\	-lus	.	4G/yy	.	4g/yy	.	4gg\yy	.	4bb\yy	.
8C\Lyy	5_ 3_	.	8.G/Lyy 8.gyy	.	8.e/Lyy 8.ccyy	.	8.ee\Lyy 8.cccyy	.	4cc\)	.	.	8.G/Lyy	.	8.e/Lyy	.	8.gg\Lyy	.	8.ccc\Lyy	.
8E\Jyy	x x	.	.	.	.	.	.	.	.	.	.	.	.	.	.	.	.	.	.
.	.	.	16G/Jkyy 16gyy	.	16e/Jkyy 16ccyy	.	16ee\Jkyy 16cccyy	.	.	.	.	16G/Jkyy	.	16e/Jkyy	.	16gg\Jkyy	.	16ccc\Jkyy	.
=26	=26	=26	=26	=26	=26	=26	=26	=26	=26	=26	=26	=26	=26	=26	=26	=26	=26	=26	=26
*^	*	*	*	*	*	*	*	*	*	*	*	*	*	*	*	*	*	*	*
4G\yy	4ryyyy	5 3	.	4G/yy 4gyy	.	4d/yy 4byy	.	4dd\yy 4bbyy	.	4b\	Sanc-	.	4G/yy	.	4g/yy	.	4gg\yy	.	4bb\yy	.
4G\yy	4GG\yy	8	.	8.G/Lyy 8.gyy	.	8.G/Lyy 8.gyy	.	8.gg\Lyy	.	4g\	-tus	.	8.G/Lyy	.	8.g/Lyy	.	8.g/Lyy	.	8.gg\Lyy	.
.	.	.	.	16G/Jkyy 16gyy	.	16G/Jkyy 16gyy	.	16gg\Jkyy	.	.	.	.	16G/Jkyy	.	16g/Jkyy	.	16g/Jkyy	.	16gg\Jkyy	.
4G\yy	4GG\yy	8	.	4G/yy 4gyy	.	4G/yy 4gyy	.	4gg\yy	.	2r	.	.	4G/yy	.	4g/yy	.	4g/yy	.	4gg\yy	.
4ryy	4ryyyy	.	.	4ryy	.	4ryy	.	4ryy	.	.	.	.	4ryy	.	4ryy	.	4ryy	.	4ryy	.
*v	*v	*	*	*	*	*	*	*	*	*	*	*	*	*	*	*	*	*	*	*
=27	=27	=27	=27	=27	=27	=27	=27	=27	=27	=27	=27	=27	=27	=27	=27	=27	=27	=27	=27
!LO:TXX:a:i:t=uniso&colon;	!	!	!	!	!	!	!	!	!	!	!	!LO:TXX:a:t=2	!	!LO:TXX:a:t=2	!	!	!	!	!
4.D\yy	.	.	(4.d/yy	.	(4.dd\yy	.	(4.ddd\yy	.	4.dd\	Quo-	.	0ryy	.	0ryy	.	(4.dd\yy	.	(4.ddd\yy	.
8D\yy	.	.	16c#X/LLyy	.	16cc#X\LLyy	.	16ccc#X\LLyy	.	8dd\	-ni-	.	.	.	.	.	16cc#X\LLyy	.	16ccc#X\LLyy	.
.	.	.	16d/JJ)yy	.	16dd\JJ)yy	.	16ddd\JJ)yy	.	.	.	.	.	.	.	.	16dd\JJ)yy	.	16ddd\JJ)yy	.
4.A\yy	.	.	(4.A/yy	.	(4.a/yy	.	(4.aa\yy	.	4.a\	-am	.	.	.	.	.	(4.a/yy	.	(4.aa\yy	.
8A\yy	.	.	16G#X/LLyy	.	16g#X/LLyy	.	16gg#X\LLyy	.	8a\	tu	.	.	.	.	.	16g#X/LLyy	.	16gg#X\LLyy	.
.	.	.	16A/JJ)yy	.	16a/JJ)yy	.	16aa\JJ)yy	.	.	.	.	.	.	.	.	16a/JJ)yy	.	16aa\JJ)yy	.
!	!	!	!	!	!	!	!LO:LB:g=original	!	!	!	!	!	!	!	!	!	!	!	!
=28	=28	=28	=28	=28	=28	=28	=28	=28	=28	=28	=28	=28	=28	=28	=28	=28	=28	=28	=28
4F\yy	.	.	(8F/Lyy	.	8f/Lyy	.	(8ff\Lyy	.	(4f/	so-	.	.	.	.	.	(8f/Lyy	.	(8ff\Lyy	.
.	.	.	16E/Lyy	.	16e/Lyy	.	16ee\Lyy	.	.	.	.	.	.	.	.	16e/Lyy	.	16ee\Lyy	.
.	.	.	16F/JJ)yy	.	16f/JJyy	.	16ff\JJ)yy	.	.	.	.	.	.	.	.	16f/JJ)yy	.	16ff\JJ)yy	.
4A\yy	.	.	(8A/Lyy	.	8a/Lyy	.	(8aa\Lyy	.	4a/)	.	.	.	.	.	.	(8a/Lyy	.	(8aa\Lyy	.
.	.	.	16G#X/Lyy	.	16g#X/Lyy	.	16gg#X\Lyy	.	.	.	.	.	.	.	.	16g#X/Lyy	.	16gg#X\Lyy	.
.	.	.	16A/JJ)yy	.	16a/JJyy	.	16aa\JJ)yy	.	.	.	.	.	.	.	.	16a/JJ)yy	.	16aa\JJ)yy	.
4D\yy	.	.	4D/yy	.	4d/yy	.	4dd\yy	.	4dd\	-lus	.	.	.	.	.	4d/yy	.	4dd\yy	.
8D\Lyy	5_ 3_	.	8.d\L 8.ayy	.	8.f/L 8.ddyy	.	8.ff\L 8.dddyy	.	4ff\	al-	.	.	.	.	.	8.aa\Lyy	.	8.fff\Lyy	.
8F\Jyy	x x	.	.	.	.	.	.	.	.	.	.	.	.	.	.	.	.	.	.
.	.	.	16d\Jk 16ayy	.	16f/Jk 16ddyy	.	16ff\Jk 16dddyy	.	.	.	.	.	.	.	.	16gg\Jkyy	.	16fff\Jkyy	.
=29	=29	=29	=29	=29	=29	=29	=29	=29	=29	=29	=29	=29	=29	=29	=29	=29	=29	=29	=29
*^	*	*	*	*	*	*	*	*	*	*	*	*	*	*	*	*	*	*	*
4G\yy	4ryyyy	6 4	.	4G/yy 4gyy	.	4e/yy 4ccyy	.	4gg\yy 4eeeyy	.	4ee\	-tis-	.	4G/yy	.	4g/yy	.	4gg\yy	.	4eee\yy	.
4G\yy	4GG\yy	x x	.	8.G/Lyy 8.gyy	.	8.e/Lyy 8.ccyy	.	8.ee\L 8.cccyy	.	8.cc\	-si-	.	8.G/Lyy	.	8.g/Lyy	.	8.gg\Lyy	.	8.ccc\Lyy	.
.	.	.	.	16G/Jkyy 16gyy	.	16e/Jkyy 16ccyy	.	16ee\Jk 16cccyy	.	16cc\	-mus	.	16G/Jkyy	.	16g/Jkyy	.	16gg\Jkyy	.	16ccc\Jkyy	.
4G\yy	4GG\yy	7	.	4d\yy 4byy	.	4f/yy 4ddyy	.	4ff\yy 4dddyy	.	4dd\	Je-	.	4G/yy	.	4g/yy	.	4gg\yy	.	4ddd\yy	.
4G\yy	4GG\yy	7	.	8.G/Lyy 8.fyy	.	8.d/Lyy 8.byy	.	8.dd\L 8.bbyy	.	8.b\	-su	.	8.G/Lyy	.	8.g/Lyy	.	8.ff\Lyy	.	8.bb\Lyy	.
.	.	.	.	16G/Jkyy 16fyy	.	16d/Jkyy 16byy	.	16dd\Jk 16bbyy	.	16b\	Chry-	.	16G/Jkyy	.	16g/Jkyy	.	16gg\Jkyy	.	16bb\Jkyy	.
*v	*v	*	*	*	*	*	*	*	*	*	*	*	*	*	*	*	*	*	*	*
=30	=30	=30	=30	=30	=30	=30	=30	=30	=30	=30	=30	=30	=30	=30	=30	=30	=30	=30	=30
4C/yy	5 3	.	4c/yy 4gyy	.	4e/yy 4ccyy	.	4ee\yy 4cccyy	.	4cc\	-ste	.	4c/yy	.	4e/yy	.	4ee\yy	.	4ccc\yy	.
4C/yy	8	.	8.C/Lyy 8.cyy	.	8.c/Lyy	.	8.cc\Lyy	.	4r	.	.	8.c/Lyy	.	8.e/Lyy	.	8.cc\Lyy	.	4ryy	.
.	.	.	16C/Jkyy 16cyy	.	16c/Jkyy	.	16cc\Jkyy	.	.	.	.	16c/Jkyy	.	16e/Jkyy	.	16cc\Jkyy	.	.	.
4C/yy	8	.	4c/yy	.	4c/yy	.	4cc\yy	.	4r	.	.	4c/yy	.	4e/yy	.	4cc\yy	.	2ryy	.
!	!	!	!	!	!	!	!	!	!LO:TX:a:i:t=Solo	!	!	!	!	!	!	!	!	!	!
4ryy	.	.	4ryy	.	4ryy	.	8ryy	.	4g\	tu	.	4ryy	.	4ryy	.	4ryy	.	.	.
!	!	!	!	!	!	!	!LO:TXX:a:i:t=Solo	!	!	!	!	!	!	!	!	!	!	!	!
.	.	.	.	.	.	.	8gg\yy	.	.	.	.	.	.	.	.	.	.	.	.
=31	=31	=31	=31	=31	=31	=31	=31	=31	=31	=31	=31	=31	=31	=31	=31	=31	=31	=31	=31
*	*	*	*tremoloy	*	*tremoloy	*	*	*	*	*	*	*	*	*	*	*	*	*	*
!LO:TXX:a:i:t=Tasto Solo	!	!LO:DY:b	!	!LO:DY:b	!	!LO:DY:b	!	!	!	!	!	!	!LO:DY:b:rj	!	!LO:DY:b:rj	!LO:TXX:a:t=2	!	!LO:TXX:a:i:t=Solo	!
2C/yy	.	py	8ryy	py	8ryy	py	4.gg\yy	.	(4.g\	so-	.	2c/yy	py	2e/yy	py	0ryy	.	2ryy	.
.	.	.	8c/Lyy	.	8G/yy 8eLyy	.	.	.	.	.	.	.	.	.	.	.	.	.	.
.	.	.	8c/yy	.	8G/yy 8eyy	.	.	.	.	.	.	.	.	.	.	.	.	.	.
.	.	.	8c/Jyy	.	8G/yy 8eJyy	.	8ccc\yy	.	8cc\)	.	.	.	.	.	.	.	.	.	.
2GG/yy	.	.	8ryy	.	8ryy	.	4bb\yy	.	4b\	-lus	.	2G/yy	.	2g/yy	.	.	.	4ryy	.
.	.	.	8B/ 8dLyy	.	8G/yy 8fLyy	.	.	.	.	.	.	.	.	.	.	.	.	.	.
.	.	.	8B/ 8dyy	.	8G/yy 8fyy	.	8.gg\Lyy	.	4g\	al-	.	.	.	.	.	.	.	8.gg\Lyy	.
.	.	.	8B/ 8dJyy	.	8G/yy 8fJyy	.	.	.	.	.	.	.	.	.	.	.	.	.	.
.	.	.	.	.	.	.	16gg\Jkyy	.	.	.	.	.	.	.	.	.	.	16gg\Jkyy	.
!	!	!	!	!	!	!	!	!	!LO:LB:g=original	!	!	!	!	!	!	!	!	!	!
=32	=32	=32	=32	=32	=32	=32	=32	=32	=32	=32	=32	=32	=32	=32	=32	=32	=32	=32	=32
*	*	*	*repy	*	*repy	*	*	*	*	*	*	*repy	*	*repy	*	*	*	*	*
2C/yy	.	.	8ryy	.	8ryy	.	4.gg\yy	.	4.g\	-tis-	.	2c/yy	.	2e/yy	.	.	.	4.gg\yy	.
.	.	.	8c/Lyy	.	8G/yy 8eLyy	.	.	.	.	.	.	.	.	.	.	.	.	.	.
.	.	.	8c/yy	.	8G/yy 8eyy	.	.	.	.	.	.	.	.	.	.	.	.	.	.
.	.	.	8c/Jyy	.	8G/yy 8eJyy	.	8ee\yy	.	8ee\	-si-	.	.	.	.	.	.	.	8eee\yy	.
2GG/yy	.	.	8ryy	.	8ryy	.	4dd\yy	.	4dd\	-mus	.	2G/yy	.	2g/yy	.	.	.	4ddd\yy	.
.	.	.	8B/yy 8dLyy	.	8G/yy 8fLyy	.	.	.	.	.	.	.	.	.	.	.	.	.	.
.	.	.	8B/yy 8dyy	.	8G/yy 8fyy	.	8.gg\Lyy	.	4g\	tu	.	.	.	.	.	.	.	8gg\Lyy	.
.	.	.	8B/yy 8dJyy	.	8G/yy 8fJyy	.	.	.	.	.	.	.	.	.	.	.	.	8gg\Jyy	.
.	.	.	.	.	.	.	16gg\Jkyy	.	.	.	.	.	.	.	.	.	.	.	.
*	*	*	*Xrep	*	*Xrep	*	*	*	*	*	*	*Xrep	*	*Xrep	*	*	*	*	*
*	*	*	*Xtremolo	*	*Xtremolo	*	*	*	*	*	*	*	*	*	*	*	*	*	*
=33	=33	=33	=33	=33	=33	=33	=33	=33	=33	=33	=33	=33	=33	=33	=33	=33	=33	=33	=33
*	*	*	*	*	*	*	*tremoloy	*	*	*	*	*	*	*	*	*	*	*	*
!	!	!	!	!LO:DY:b:rj	!	!LO:DY:b:rj	!LO:TXX:t=||||	!	!	!	!LO:DY:a:rj	!	!LO:DY:b:rj	!	!LO:DY:b:rj	!	!LO:DY:b:rj	!	!
2C/yy	5 3	.	2G/yy 2gyy	ffy	2e/yy 2ccyy	ffyy	16eee\LLyy	.	4ee\	so-	f	2c/yy	fy	2e/yy	fy	2ccc\yy	fy	4.eee\yy	.
.	.	.	.	.	.	.	16eee\yy	.	.	.	.	.	.	.	.	.	.	.	.
.	.	.	.	.	.	.	16eee\yy	.	.	.	.	.	.	.	.	.	.	.	.
.	.	.	.	.	.	.	16eee\JJyy	.	.	.	.	.	.	.	.	.	.	.	.
*	*	*	*	*	*	*	*Xtremolo	*	*	*	*	*	*	*	*	*	*	*	*
.	.	.	.	.	.	.	16eee\LLyy	.	8ee\	-lus	.	.	.	.	.	.	.	.	.
.	.	.	.	.	.	.	16eee\yy	.	.	.	.	.	.	.	.	.	.	.	.
.	.	.	.	.	.	.	16fff\yy	.	(16ff\LL	al-	.	.	.	.	.	.	.	16fff\LLyy	.
.	.	.	.	.	.	.	16eee\JJyy	.	16ee\JJ)	.	.	.	.	.	.	.	.	16eee\JJyy	.
*	*	*	*	*	*	*	*tremoloy	*	*	*	*	*	*	*	*	*	*	*	*
!	!	!	!	!	!	!	!LO:TXX:t=||||	!	!	!	!	!	!	!	!	!	!	!	!
2GG/yy	.	.	2B/yy 2dyy	.	2d/yy 2byy	.	16ddd\LLyy	.	8dd\	-tis-	.	2G/yy	.	2g/yy	.	2gg\yy	.	4.ddd\yy	.
.	.	.	.	.	.	.	16ddd\yy	.	.	.	.	.	.	.	.	.	.	.	.
.	.	.	.	.	.	.	16ddd\yy	.	8dd\	-si-	.	.	.	.	.	.	.	.	.
.	.	.	.	.	.	.	16ddd\JJyy	.	.	.	.	.	.	.	.	.	.	.	.
*	*	*	*	*	*	*	*Xtremolo	*	*	*	*	*	*	*	*	*	*	*	*
!	!	!	!	!	!	!	!LO:N:vis=8	!	!	!	!	!	!	!	!	!	!	!	!
.	.	.	.	.	.	.	16ddd\LLyy	.	(8dd\L	-mus	.	.	.	.	.	.	.	.	.
!	!	!	!	!	!	!	!LO:N:vis=8	!	!	!	!	!	!	!	!	!	!	!	!
.	.	.	.	.	.	.	16ddd\yy	.	.	.	.	.	.	.	.	.	.	.	.
!	!	!	!	!	!	!	!LO:N:vis=8	!	!	!	!	!	!	!	!	!	!	!	!
.	.	.	.	.	.	.	16eee\yy	.	16ee\L	.	.	.	.	.	.	.	.	16eee\LLyy	.
!	!	!	!	!	!	!	!LO:N:vis=8	!	!	!	!	!	!	!	!	!	!	!	!
.	.	.	.	.	.	.	16ddd\JJyy	.	16dd\JJ)	.	.	.	.	.	.	.	.	16ddd\JJyy	.
=34	=34	=34	=34	=34	=34	=34	=34	=34	=34	=34	=34	=34	=34	=34	=34	=34	=34	=34	=34
*	*	*	*	*	*	*	*tremoloy	*	*	*	*	*	*	*	*	*	*	*	*
2AA/yy	.	.	2c/yy	.	2e/yy 2ayy	.	16ccc\LLyy	.	8cc\	Je-	.	2e/yy	.	2e/yy	.	2aa\yy	.	4.ccc\yy	.
.	.	.	.	.	.	.	16ccc\yy	.	.	.	.	.	.	.	.	.	.	.	.
.	.	.	.	.	.	.	16ccc\yy	.	8cc\	-su	.	.	.	.	.	.	.	.	.
.	.	.	.	.	.	.	16ccc\JJyy	.	.	.	.	.	.	.	.	.	.	.	.
*	*	*	*	*	*	*	*Xtremolo	*	*	*	*	*	*	*	*	*	*	*	*
.	.	.	.	.	.	.	16ccc\LLyy	.	(8cc\L	Chri-	.	.	.	.	.	.	.	.	.
.	.	.	.	.	.	.	16ccc\yy	.	.	.	.	.	.	.	.	.	.	.	.
.	.	.	.	.	.	.	16ddd\yy	.	16dd\L	.	.	.	.	.	.	.	.	16ddd\LLyy	.
.	.	.	.	.	.	.	16ccc\JJyy	.	16cc\JJ)	.	.	.	.	.	.	.	.	16ccc\JJyy	.
*	*	*	*	*	*	*	*tremoloy	*	*	*	*	*	*	*	*	*	*	*	*
!	!	!	!	!	!	!	!LO:TXX:t=||||	!	!	!	!	!	!	!	!	!	!	!	!
2E\yy	#3	.	2B/yy 2eyy	.	2g#X/yy	.	16bb\LLyy	.	4a\	-ste	.	2e/yy	.	2e/yy	.	2ee\yy	.	4.bb\yy	.
.	.	.	.	.	.	.	16bb\yy	.	.	.	.	.	.	.	.	.	.	.	.
.	.	.	.	.	.	.	16bb\yy	.	.	.	.	.	.	.	.	.	.	.	.
.	.	.	.	.	.	.	16bb\JJyy	.	.	.	.	.	.	.	.	.	.	.	.
*	*	*	*	*	*	*	*Xtremolo	*	*	*	*	*	*	*	*	*	*	*	*
.	.	.	.	.	.	.	16bb\LLyy	.	8r	.	.	.	.	.	.	.	.	.	.
.	.	.	.	.	.	.	16bb\yy	.	.	.	.	.	.	.	.	.	.	.	.
.	.	.	.	.	.	.	16ccc\yy	.	8b\	cum	.	.	.	.	.	.	.	16ccc\LLyy	.
.	.	.	.	.	.	.	16bb\JJyy	.	.	.	.	.	.	.	.	.	.	16bb\JJyy	.
=35	=35	=35	=35	=35	=35	=35	=35	=35	=35	=35	=35	=35	=35	=35	=35	=35	=35	=35	=35
*	*	*	*	*	*	*	*tremoloy	*	*	*	*	*	*	*	*	*	*	*	*
!	!	!	!	!	!	!	!LO:TXX:t=||||	!	!	!	!	!	!	!	!	!	!	!	!
4F\yy	.	.	4c/yy	.	4f/yy 4ayy	.	16cc\ 16aaLLyy	.	(4a\	sanc-	.	4c/yy	.	4c/yy	.	4ff\yy	.	4aa\yy	.
.	.	.	.	.	.	.	16cc\ 16aayy	.	.	.	.	.	.	.	.	.	.	.	.
.	.	.	.	.	.	.	16cc\ 16aayy	.	.	.	.	.	.	.	.	.	.	.	.
.	.	.	.	.	.	.	16cc\ 16aaJJyy	.	.	.	.	.	.	.	.	.	.	.	.
4D\yy	6 3	.	4G/yy 4fyy	.	4d/yy 4byy	.	16dd\ 16bbLLyy	.	4b\)	.	.	4G/yy	.	4g/yy	.	4dd\yy	.	4bb\yy	.
.	.	.	.	.	.	.	16dd\ 16bbyy	.	.	.	.	.	.	.	.	.	.	.	.
.	.	.	.	.	.	.	16dd\ 16bbyy	.	.	.	.	.	.	.	.	.	.	.	.
.	.	.	.	.	.	.	16dd\ 16bbJJyy	.	.	.	.	.	.	.	.	.	.	.	.
4E\yy	6 3	.	4c/yy	.	4g/yy 4ccyy	.	16ee\ 16cccLLyy	.	4cc\	-to	.	4c/yy	.	4g/yy	.	4gg\yy	.	4ccc\yy	.
.	.	.	.	.	.	.	16ee\ 16cccyy	.	.	.	.	.	.	.	.	.	.	.	.
.	.	.	.	.	.	.	16ee\ 16cccyy	.	.	.	.	.	.	.	.	.	.	.	.
.	.	.	.	.	.	.	16ee\ 16cccJJyy	.	.	.	.	.	.	.	.	.	.	.	.
4F#X\yy	6 5	.	4d\yy 4ayy	.	4d/yy 4ccyy	.	16dd\ 16dddLLyy	.	4dd\	spi-	.	4c/yy	.	4c/yy	.	4aa\yy	.	4ddd\yy	.
.	.	.	.	.	.	.	16dd\ 16dddyy	.	.	.	.	.	.	.	.	.	.	.	.
.	.	.	.	.	.	.	16dd\ 16dddyy	.	.	.	.	.	.	.	.	.	.	.	.
.	.	.	.	.	.	.	16dd\ 16dddJJyy	.	.	.	.	.	.	.	.	.	.	.	.
*	*	*	*	*	*	*	*Xtremolo	*	*	*	*	*	*	*	*	*	*	*	*
=36	=36	=36	=36	=36	=36	=36	=36	=36	=36	=36	=36	=36	=36	=36	=36	=36	=36	=36	=36
4G\yy	3	.	4B/yy 4gyy	.	4d/yy 4byy	.	4dd\yy 4ggyy	.	4b\	-ri-	.	4G/yy	.	4g/yy	.	4gg\yy	.	4bb\yy	.
4GG/yy	8	.	4G/yy 4gyy	.	4G/yy 4gyy	.	4gg\yy	.	4g\	-to	.	4G/yy	.	4g/yy	.	4g/yy	.	4gg\yy	.
2ryy	.	.	2ryy	.	2ryy	.	2ryy	.	2r	.	.	2ryy	.	2ryy	.	2ryy	.	2ryy	.
=37	=37	=37	=37	=37	=37	=37	=37	=37	=37	=37	=37	=37	=37	=37	=37	=37	=37	=37	=37
!LO:TX:a:t=2	!	!	!LO:TXX:a:i:t=Solo	!	!LO:TXX:a:t=Solo	!	!	!	!LO:TX:a:t=2	!	!	!LO:TXX:a:t=2	!	!LO:TXX:a:t=2	!	!	!	!LO:TXX:a:t=2	!
0ryy	.	.	4.d/yy	.	4.dd\yy	fy	4.ff\yy	.	0r	.	.	0ryy	.	0ryy	.	4.f/yy	.	0ryy	.
.	.	.	8c/yy	.	8cc\yy	.	8ee\yy	.	.	.	.	.	.	.	.	8e/yy	.	.	.
.	.	.	4G/yy	.	4g/yy	.	4dd\yy	.	.	.	.	.	.	.	.	4d/yy	.	.	.
.	.	.	4ryy	.	4ryy	.	4ryy	.	.	.	.	.	.	.	.	4ryy	.	.	.
=38	=38	=38	=38	=38	=38	=38	=38	=38	=38	=38	=38	=38	=38	=38	=38	=38	=38	=38	=38
.	.	.	4.c/yy	.	4.cc\yy	.	4.ee\yy	.	.	.	.	.	.	.	.	4.e/yy	.	.	.
.	.	.	8G/yy	.	8g/yy	.	8dd\yy	.	.	.	.	.	.	.	.	8d/yy	.	.	.
.	.	.	4E/yy	.	4e/yy	.	4cc\yy	.	.	.	.	.	.	.	.	4c/yy	.	.	.
.	.	.	4ryy	.	4ryy	.	4ryy	.	.	.	.	.	.	.	.	4ryy	.	.	.
=39	=39	=39	=39	=39	=39	=39	=39	=39	=39	=39	=39	=39	=39	=39	=39	=39	=39	=39	=39
*^	*	*	*	*	*	*	*	*	*	*	*	*	*	*	*	*	*	*	*
!	!	!	!	!	!LO:DY:b:rj	!	!	!	!LO:DY:b:rj	!	!	!	!	!	!	!	!	!LO:DY:b:rj	!	!LO:DY:b:rj
4F\yy	4ryyyy	6 3	.	4A/yy 4fyy	fy	4d/yy 4ayy	.	4f/yy 4ayy	ffy	(4a\	In	.	2ryy	.	2ryy	.	4ff\yy	fy	4aa\yy	fy
4D\yy	4ryyyy	3	.	4A/yy 4dyy	.	4f/yy 4ddyy	.	4a\yy 4ffyy	.	4ff\)	.	.	.	.	.	.	4ff\yy	.	4fff\yy	.
4G\yy	4GG\yy	6 4	.	4c/yy 4eyy	.	4g/yy	.	4cc\yy 4eeyy	.	4ee\	glo-	.	4G/yy	.	4g/yy	.	4ee\yy	.	4eee\yy	.
4G\yy	4GG\yy	7	.	4B/yy 4dyy	.	4G/yy 4gyy	.	4d/yy 4ddyy	.	4dd\	-ri-	.	4G/yy	.	4g/yy	.	4dd\yy	.	4ddd\yy	.
*v	*v	*	*	*	*	*	*	*	*	*	*	*	*	*	*	*	*	*	*	*
=40	=40	=40	=40	=40	=40	=40	=40	=40	=40	=40	=40	=40	=40	=40	=40	=40	=40	=40	=40
!LO:TXX:a:i:t=uniso&colon;	!	!	!	!	!	!	!LO:TXX:t=P:problem=mixed beam	!	!	!	!	!	!	!	!	!	!	!	!
8C\Lyy	3	.	8c/Lyy 8eyy	.	8G/Lyy 8gyy	.	8e/L 8ccyy	.	4cc\	-a	.	8c/Lyy	.	8cc\Lyy	.	8cc/Lyy	.	8ccc\Lyy	.
8G\yy	.	.	8G/yy	.	8g/Jyy	.	8ggT\yy	.	.	.	.	8G/yy	.	8g\yy	.	8g/yy	.	8ggT\yy	.
8c\yy	.	.	8c/yy	.	8cc/Lyy	.	8ccc\yy	.	4r	.	.	8c/yy	.	8cc\yy	.	8cc/yy	.	8ccc\yy	.
8G\Jyy	.	.	8G/Jyy	.	8g/Jyy	.	8gg\Jyy	.	.	.	.	8G/Jyy	.	8g\Jyy	.	8g/Jyy	.	8gg\Jyy	.
8E\Lyy	.	.	8E/Lyy	.	8e/Lyy	.	8ee\Lyy	.	2r	.	.	8e/Lyy	.	8e\Lyy	.	8e/Lyy	.	8ee\Lyy	.
8G\yy	.	.	8G/yy	.	8g/yy	.	8gg\yy	.	.	.	.	8g/yy	.	8g\yy	.	8g/yy	.	8gg\yy	.
8E\yy	.	.	8E/yy	.	8e/yy	.	8ee\yy	.	.	.	.	8e/yy	.	8e\yy	.	8e/yy	.	8ee\yy	.
8C\Jyy	.	.	8C/Jyy	.	8c/Jyy	.	8cc\Jyy	.	.	.	.	8c/Jyy	.	8c\Jyy	.	8c/Jyy	.	8cc\Jyy	.
=41	=41	=41	=41	=41	=41	=41	=41	=41	=41	=41	=41	=41	=41	=41	=41	=41	=41	=41	=41
!LO:TXX:a:i:t=tasto solo	!	!	!	!	!	!	!LO:TXX:a:t=Solo	!LO:DY:b:rj	!LO:TX:a:t=2	!	!	!LO:TXX:a:t=3	!	!LO:TXX:a:t=3	!	!LO:TXX:a:i:t=Solo	!	!LO:TXX:a:t=2	!
2.E\yy	.	.	4.B/yy	.	4.d/yy	.	4.dd\yy	fy	0r	.	.	0ryy	.	0ryy	.	4.b\yy	.	0ryy	.
.	.	.	8A/yy	.	8c/yy	.	8cc\yy	.	.	.	.	.	.	.	.	8a/yy	.	.	.
.	.	.	4G#X/yy	.	4B/yy	.	4b\yy	.	.	.	.	.	.	.	.	4g#X/yy	.	.	.
4ryy	.	.	4ryy	.	4ryy	.	4ryy	.	.	.	.	.	.	.	.	4ryy	.	.	.
=42	=42	=42	=42	=42	=42	=42	=42	=42	=42	=42	=42	=42	=42	=42	=42	=42	=42	=42	=42
2E\yy	.	.	4.A/yy	.	4.c/yy	.	4.cc\yy	.	.	.	.	.	.	.	.	4.a/yy	.	.	.
.	.	.	8G#X/yy	.	8B/yy	.	8b\yy	.	.	.	.	.	.	.	.	8g#X/yy	.	.	.
4E\yy	.	.	4FnX/yy	.	4A/yy	.	4a\yy	.	.	.	.	.	.	.	.	4f/yy	.	.	.
4ryy	.	.	4ryy	.	4ryy	.	4ryy	.	.	.	.	.	.	.	.	4ryy	.	.	.
=43	=43	=43	=43	=43	=43	=43	=43	=43	=43	=43	=43	=43	=43	=43	=43	=43	=43	=43	=43
!	!	!	!	!	!	!	!	!LO:DY:b	!	!	!	!	!	!	!	!	!LO:DY:b:rj	!	!LO:DY:b
4D\yy	6_ 3_	.	4f/yy	.	4d/yy 4byy	.	4dd\yy 4bbyy	ffy	4b\	De-	.	1ryy	.	1ryy	.	4ff\yy	fy	4bb\yy	fy
4D\yy	x x	.	4f\yy	.	4d/yy 4byy	.	4dd\yy 4bbyy	.	4b\	-i	.	.	.	.	.	4ff\yy	.	4bb\yy	.
4E-X\yy	6 4 #2	.	4c\yy 4f#Xyy	.	4cc/yy	.	4ee-X\yy 4cccyy	.	(4cc\	pa-	.	.	.	.	.	4ff#X\yy	.	4ccc\yy	.
4E-\yy	.	.	4c/yy	.	4f#X/yy 4ayy	.	4cc\yy 4aayy	.	4a\)	.	.	.	.	.	.	4ff#\yy	.	4aa\yy	.
!	!	!	!	!	!	!	!	!	!LO:LB:g=original	!	!	!	!	!	!	!	!	!	!
=44	=44	=44	=44	=44	=44	=44	=44	=44	=44	=44	=44	=44	=44	=44	=44	=44	=44	=44	=44
!	!	!	!	!	!	!	!	!	!	!	!	!	!LO:DY:b:rj	!	!LO:DY:b:rj	!	!	!	!
4E\yy	#3	.	8g#X\Lyy	.	8e/Lyy 8byy	.	8b\L 8ggyy	.	4g#X\	-tris	.	8e/yy	fy	8e/yy	fy	8ee\Lyy	.	8gg#X\Lyy	.
.	.	.	16e\Lyy	.	16e/Lyy	.	16ee\L 16eeeyy	.	.	.	.	16e/LLyy	.	16ee\LLyy	.	16ee\Lyy	.	16eee\Lyy	.
.	.	.	16e\JJyy	.	16e/JJyy	.	16ee\JJ 16eeeyy	.	.	.	.	16e/JJyy	.	16eeJJyy	.	16ee\JJyy	.	16eee\JJyy	.
4E\yy	8	.	8e\Lyy	.	8e/Lyy	.	8ee\L 8eeeyy	.	4r	.	.	8e/Lyy	.	8ee\Lyy	.	8ee\Lyy	.	8eee\Lyy	.
.	.	.	8e\Jyy	.	8e/Jyy	.	8ee\J 8eeeyy	.	.	.	.	8e/Jyy	.	8ee\Jyy	.	8ee\Jyy	.	8eee\Jyy	.
*	*	*	*tremoloy	*	*	*	*tremoloy	*	*	*	*	*tremoloy	*	*tremoloy	*	*tremoloy	*	*tremoloy	*
4E\yy	.	.	8e\Lyy	.	8e/Lyy	.	16eee\LLyy	.	2r	.	.	8e/Lyy	.	8ee\Lyy	.	8ee\Lyy	.	8eee\Lyy	.
.	.	.	.	.	.	.	16eee\yy	.	.	.	.	.	.	.	.	.	.	.	.
.	.	.	8e\yy	.	8e/yy	.	16eee\yy	.	.	.	.	8e/yy	.	8ee\yy	.	8ee\yy	.	8eee\yy	.
.	.	.	.	.	.	.	16eee\yy	.	.	.	.	.	.	.	.	.	.	.	.
4E\yy	.	.	8e\yy	.	8e/yy	.	16eee\yy	.	.	.	.	8e/yy	.	8ee\yy	.	8ee\yy	.	8eee\yy	.
.	.	.	.	.	.	.	16eee\yy	.	.	.	.	.	.	.	.	.	.	.	.
.	.	.	8e\Jyy	.	8e/Jyy	.	16eee\yy	.	.	.	.	8e/Jyy	.	8ee\Jyy	.	8ee\Jyy	.	8eee\Jyy	.
.	.	.	.	.	.	.	16eee\JJyy	.	.	.	.	.	.	.	.	.	.	.	.
*	*	*	*Xtremolo	*	*Xtremolo	*	*Xtremolo	*	*	*	*	*Xtremolo	*	*Xtremolo	*	*Xtremolo	*	*Xtremolo	*
=45	=45	=45	=45	=45	=45	=45	=45	=45	=45	=45	=45	=45	=45	=45	=45	=45	=45	=45	=45
!LO:TX:a:i:t=uniso&colon;	!	!LO:DY:b:rj	!	!	!	!	!	!	!LO:TX:a:t=1.	!	!	!	!	!	!	!	!	!	!
4.C/	.	f	(4.c/	.	(4.cc\	.	(4.ccc\	.	1r	.	.	4.c/	.	4.cc/	.	(4.cc\	.	(4.ccc\	.
8C/	.	.	16B/LL	.	16b\LL	.	16bb\LL	.	.	.	.	8c/	.	8cc/	.	16b\LL	.	16bb\LL	.
.	.	.	16c/JJ)	.	16cc\JJ)	.	16ccc\JJ)	.	.	.	.	.	.	.	.	16cc\JJ)	.	16ccc\JJ)	.
4.G\	.	.	(4.g\	.	(4.g/	.	(4.gg\	.	.	.	.	4.G/	.	4.g/	.	(4.g/	.	(4.gg\	.
8G\	.	.	16f#X\LL	.	16f#X/LL	.	16ff#X\LL	.	.	.	.	8G/	.	8g/	.	16f#X/LL	.	16ff#X\LL	.
.	.	.	16g\JJ)	.	16g/JJ)	.	16gg\JJ)	.	.	.	.	.	.	.	.	16g/JJ)	.	16gg\JJ)	.
=46	=46	=46	=46	=46	=46	=46	=46	=46	=46	=46	=46	=46	=46	=46	=46	=46	=46	=46	=46
4E\	.	.	(8e\L	.	8e/L	.	(8ee\L	.	2r	.	.	8G/	.	8e/	.	8e/L	.	(8ee\L	.
.	.	.	16d#X\L	.	16d#X/L	.	16dd#X\L	.	.	.	.	8r	.	8r	.	16d#X/L	.	16dd#X\L	.
.	.	.	16e\JJ)	.	16e/JJ	.	16ee\JJ)	.	.	.	.	.	.	.	.	16e/JJ	.	16ee\JJ)	.
4G\	.	.	(8g\L	.	(8g/L	.	8gg\L	.	.	.	.	8G/	.	8g/	.	8g/L	.	(8gg\L	.
.	.	.	16f#X\L	.	16f#X/L	.	16ff#X\L	.	.	.	.	8ryy	.	8r	.	16f#X/L	.	16ff#X\L	.
.	.	.	16g\JJ)	.	16g/JJ)	.	16gg\JJ	.	.	.	.	.	.	.	.	16g/JJ	.	16gg\JJ)	.
4C\	.	.	4c/	.	4c/	.	4cc\	.	4r	.	.	4c/	.	4c/	.	4c/	.	4cc\	.
8C\L	5_ 3_	.	8.G/L 8.g	.	8.e/L 8.cc	.	8.ee\L 8.ccc	.	4cc\	a-	.	8.c/L	.	8.e/L	.	8.gg\L	.	8.ccc\L	.
8E\J	x x	.	.	.	.	.	.	.	.	.	.	.	.	.	.	.	.	.	.
.	.	.	16G/Jk 16g	.	16e/Jk 16cc	.	16ee\Jk 16ccc	.	.	.	.	16c/Jk	.	16e/Jk	.	16gg\Jk	.	16ccc\Jk	.
=47	=47	=47	=47	=47	=47	=47	=47	=47	=47	=47	=47	=47	=47	=47	=47	=47	=47	=47	=47
4G\	.	.	4G/ 4g	.	4d/ 4b	.	4dd\ 4bb	.	(4b\	-men	.	4G/	.	4g\	.	4gg\	.	4bb\	.
8C\L	5_ 3_	.	8.G/L 8.g	.	8.e/L 8.cc	.	8.ee\L 8.ccc	.	4cc\	.	.	8.c/L	.	8.e\L	.	8.gg\L	.	8.ccc\L	.
8E\J	x x	.	.	.	.	.	.	.	.	.	.	.	.	.	.	.	.	.	.
.	.	.	16G/Jk 16g	.	16e/Jk 16cc	.	16ee\Jk 16ccc	.	.	.	.	16c/Jk	.	16e\Jk	.	16gg\Jk	.	16ccc\Jk	.
4G\	.	.	4G/ 4g	.	4d/ 4b	.	4dd\ 4bb	.	4b\	.	.	4G/	.	4g\	.	4gg\	.	4bb\	.
!	!	!	!	!	!	!	!	!	!	!	!	!	!	!	!	!	!	!LO:LB:g=original	!
=-	=-	=-	=-	=-	=-	=-	=-	=-	=-	=-	=-	=-	=-	=-	=-	=-	=-	=-	=-
8C\L	5_ 3_	.	8.G/L 8.g	.	8.e/L 8.cc	.	8.ee\L 8.ccc	.	4cc\)	.	.	8.c/L	.	8.e\L	.	8.gg\L	.	8.ccc\L	.
8E\J	x x	.	.	.	.	.	.	.	.	.	.	.	.	.	.	.	.	.	.
.	.	.	16G/Jk 16g	.	16e/Jk 16cc	.	16ee\Jk 16ccc	.	.	.	.	16c/Jk	.	16e\Jk	.	16gg\Jk	.	16ccc\Jk	.
!	!	!	!	!	!	!	!	!	!	!	!	!LO:LB:g=original	!	!	!	!	!	!	!
=48	=48	=48	=48	=48	=48	=48	=48	=48	=48	=48	=48	=48	=48	=48	=48	=48	=48	=48	=48
*^	*	*	*	*	*	*	*	*	*	*	*	*	*	*	*	*	*	*	*
4G\	4ryy	.	.	4G/ 4g	.	4d/ 4b	.	4dd\ 4bb	.	4b\	a-	.	4G/	.	4g\	.	4gg\	.	4bb\	.
4G\	4GG\	8	.	8.G/L 8.g	.	8.G/L 8.g	.	8.gg\L	.	4g\	-men	.	8.G/L	.	16g\LL	.	8.g/L	.	8.gg\L	.
.	.	.	.	.	.	.	.	.	.	.	.	.	.	.	16g\JJ	.	.	.	.	.
.	.	.	.	.	.	.	.	.	.	.	.	.	.	.	4g\	.	.	.	.	.
.	.	.	.	16G/Jk 16g	.	16G/Jk 16g	.	16gg\Jk	.	.	.	.	16G/Jk	.	.	.	16g/Jk	.	16gg\Jk	.
4G\	4GG\	8	.	4G/ 4g	.	4G/ 4g	.	4gg\	.	2r	.	.	4G/	.	.	.	4g/	.	4gg\	.
.	.	.	.	.	.	.	.	.	.	.	.	.	.	.	8r	.	.	.	.	.
4r	4ryy	.	.	4r	.	4r	.	4r	.	.	.	.	4r	.	4r	.	4r	.	4r	.
*v	*v	*	*	*	*	*	*	*	*	*	*	*	*	*	*	*	*	*	*	*
=49	=49	=49	=49	=49	=49	=49	=49	=49	=49	=49	=49	=49	=49	=49	=49	=49	=49	=49	=49
!LO:TX:a:i:t=uniso&colon;	!	!	!	!	!	!	!	!	!LO:TX:a:t=1.	!	!	!LO:TX:a:t=2	!	!LO:TX:a:t=2	!	!	!	!	!
4.D\	.	.	(4.d/	.	(4.dd\	.	(4.ddd\	.	1r	.	.	0r	.	0r	.	(4.dd\	.	(4.ddd\	.
8D\	.	.	16c#X/LL	.	16cc#X\LL	.	16ccc#X\LL	.	.	.	.	.	.	.	.	16cc#X\LL	.	16ccc#X\LL	.
.	.	.	16d/JJ)	.	16dd\JJ)	.	16ddd\JJ)	.	.	.	.	.	.	.	.	16dd\JJ)	.	16ddd\JJ)	.
4.A\	.	.	(4.A/	.	(4.a/	.	(4.aa\	.	.	.	.	.	.	.	.	(4.a/	.	(4.aa\	.
8A\	.	.	16G#X/LL	.	16g#X/LL	.	16gg#X\LL	.	.	.	.	.	.	.	.	16g#X/LL	.	16gg#X\LL	.
.	.	.	16A/JJ)	.	16a/JJ)	.	16aa\JJ)	.	.	.	.	.	.	.	.	16a/JJ)	.	16aa\JJ)	.
!	!	!	!	!	!	!	!LO:LB:g=original	!	!	!	!	!	!	!	!	!	!	!	!
=50	=50	=50	=50	=50	=50	=50	=50	=50	=50	=50	=50	=50	=50	=50	=50	=50	=50	=50	=50
4F\	.	.	(8F/L	.	(8f/L	.	(8ff\L	.	2r	.	.	.	.	.	.	8f/L	.	(8ff\L	.
.	.	.	16E/L	.	16e/L	.	16ee\L	.	.	.	.	.	.	.	.	16e/L	.	16ee\L	.
.	.	.	16F/JJ)	.	16f/JJ)	.	16ff\JJ)	.	.	.	.	.	.	.	.	16f/JJ	.	16ff\JJ)	.
4A\	.	.	(8A/L	.	(8a/L	.	(8aa\L	.	.	.	.	.	.	.	.	8a/L	.	(8aa\L	.
.	.	.	16G#X/L	.	16g#X/L	.	16gg#X\L	.	.	.	.	.	.	.	.	16g#X/L	.	16gg#X\L	.
.	.	.	16A/JJ)	.	16a/JJ)	.	16aa\JJ)	.	.	.	.	.	.	.	.	16a/JJ	.	16aa\JJ)	.
4D\	.	.	4D/	.	4d/	.	4dd\	.	4r	.	.	.	.	.	.	4d/	.	4dd\	.
!	!	!	!	!	!	!	!	!	!	!	!	!	!	!	!	!LO:LB:g=original	!	!	!
=-	=-	=-	=-	=-	=-	=-	=-	=-	=-	=-	=-	=-	=-	=-	=-	=-	=-	=-	=-
8D\L	5_ 3_	.	8.d\L 8.a	.	8.f/L 8.dd	.	8.ff\L 8.ddd	.	4ff\	A-	.	.	.	.	.	8.aa\L	.	8.fff\L	.
8F\J	.	.	.	.	.	.	.	.	.	.	.	.	.	.	.	.	.	.	.
.	.	.	16d\Jk 16a	.	16f/Jk 16dd	.	16ff\Jk 16ddd	.	.	.	.	.	.	.	.	16aa\Jk	.	16fff\Jk	.
!	!	!	!	!	!	!	!	!	!	!	!	!	!	!LO:LB:g=original	!	!	!	!	!
=51	=51	=51	=51	=51	=51	=51	=51	=51	=51	=51	=51	=51	=51	=51	=51	=51	=51	=51	=51
*^	*	*	*	*	*	*	*	*	*	*	*	*	*	*	*	*	*	*	*
4G\	4GG\	6_ 4_	.	4G/ 4g	.	4e/ 4cc	.	4ee\ 4eee	.	(4ee\	-men	.	4G/	.	4g/	.	4gg\	.	4eee\	.
4G\	4GG\	x x	.	8.G/L 8.g	.	8.e/L 8.cc	.	8.ee\L 8.ccc	.	4cc\	.	.	8.G/L	.	8.g/L	.	8.gg\L	.	8.ccc\L	.
.	.	.	.	16G/Jk 16g	.	16e/Jk 16cc	.	16ee\Jk 16ccc	.	.	.	.	16G/Jk	.	16g/Jk	.	16gg\Jk	.	16ccc\Jk	.
4G\	4GG\	7	.	4d\ 4b	.	4f/ 4dd	.	4ff\ 4ddd	.	4dd\)	.	.	4G/	.	4g/	.	4gg\	.	4ddd\	.
4G\	4GG\	7	.	8.G/L 8.f	.	8.d/L 8.b	.	8.dd\L 8.bb	.	4b\	a-	.	8.G/L	.	8.g/L	.	8.ff\L	.	8.bb\L	.
.	.	.	.	16G/Jk 16f	.	16d/Jk 16b	.	16dd\Jk 16bb	.	.	.	.	16G/Jk	.	16g/Jk	.	16ff\Jk	.	16bb\Jk	.
*v	*v	*	*	*	*	*	*	*	*	*	*	*	*	*	*	*	*	*	*	*
!	!	!	!	!	!LO:LB:g=original	!	!	!	!	!	!	!	!	!	!	!	!	!	!
=52	=52	=52	=52	=52	=52	=52	=52	=52	=52	=52	=52	=52	=52	=52	=52	=52	=52	=52	=52
4C/	3	.	4c/ 4g	.	4e/ 4cc	.	4ee\ 4ccc	.	4cc\	-men	.	4c/	.	4e/	.	4ee\	.	4ccc\	.
4C/	8	.	8.C/L 8.c	.	8.c/L	.	8.cc\L	.	4r	.	.	8.c/L	.	8.c/L	.	8.cc\L	.	4r	.
.	.	.	16C/Jk 16c	.	16c/Jk	.	16cc\Jk	.	.	.	.	16c/Jk	.	16c/Jk	.	16cc\Jk	.	.	.
4C/	8	.	4C/ 4c	.	4c/	.	4cc\	.	2r	.	.	4c/	.	4c/	.	4cc\	.	2r	.
4r	.	.	4r	.	4r	.	4r	.	.	.	.	4r	.	4r	.	4r	.	.	.
==	==	==	==	==	==	==	==	==	==	==	==	==	==	==	==	==	==	==	==
*-	*-	*-	*-	*-	*-	*-	*-	*-	*-	*-	*-	*-	*-	*-	*-	*-	*-	*-	*-
!!!system-decoration: [(s1,s2)][(s3,s4)](s5)[(s6,s7,s8)](s9)
!!!RDF**kern: < = below
!!!RDF**kern: > = above
!!!ENC: Andrzej Gręziak
!!!END: 2020-10-23
!!!ENC: Marta Chmielewska
!!!END: 2022-02-09
